X:1
T:Ave Maria
T:Ave Maria
T: Wilhelm Fitzanhagen, Op. 41
C:Fitzanhagen
%%score [ 1 2 ( 3 4 ) ( 5 6 ) ]
L:1/8
Q:1/4=120
M:4/4
K:D
V:1 tenor nm="Cello I"
V:2 tenor nm="Cello II"
V:3 tenor nm="Cello III"
V:4 tenor 
V:5 bass nm="Cello IV"
V:6 bass 
V:1
"^Adagio" z8 | z8 | z8 | z8 | z8 | z8 | z8 | z8 |"^con sentimento"!p! (A,4!<(! B,4) | %9
 (B,4 D4)!<)! |!f! (F6!>(! E2) | (E4 D4)!>)! |!<(! (B,3 C) !tenuto!D2 CB,!<)! | %13
!>(! (A,4 C2) B,2!>)! |"_dim." A,4{G,A,} (TG,4{F,G,)} |!p! F,6 F,2 | E,4 A,4 | %17
!>(! (D4 C2)!>)!"_cresc." A,2 | B,4 D4 | (G4 F2) F2 |!ff! E4 D2 C2 | %21
!>(! (D3 E/D/) !tenuto!C2 !tenuto!B,2!>)! |!mf! (A,4!<(! ^A,4) | %23
 !tenuto!B,2 !tenuto!A,2 (^G,2 E2)!<)! |!f!!>(! (E4!>)!!<(! C2 B,2)!<)! | %25
!>(! (!>!B,4 A,2)!>)!!p! (A,2 | C3 D)!<(! !tenuto!E2 !tenuto!F2!<)! | %27
!>(! ((E2 D4)!>)! !tenuto!D2) |!pp! (!>!D3 =C) (!>!D3 C) | ((=C2 _B,4) !tenuto!A,2) | %30
!<(! (^G,2 !tenuto!=F4) !tenuto!E!tenuto!D!<)! |!f! (D2!>(! C2 D2) !tenuto!G,2!>)! | %32
!<(! F,4!<)!!mf! (C3!>(! B,) | (!>!B,2 _B,4) A,2!>)! |!pp! (A,4 =B,4) |!<(! (B,4 D4)!<)! | %36
!ff! F6 E2 |!>(! (E4 ^D2) !tenuto!B,2!>)! |!p!!<(! !>!G4 !>!G4!<)! |!f! (!>!G6 F2) | %40
 (E3 F/!>(!E/) D2 E2!>)! | F6 (D2 | B4) (!tenuto!A3 !tenuto!B) | (A2 G4) (B,2 | G4 =F3 G) | %45
 E6 (E2 | A6) G2 | (F2 D2) B,2 G,2 | F,4(({E,F,)} E,/F,/ E,2 D,) | D,6!pp! !0!D2- | D4 ^D4 | %51
 E6 (B,2- | B,2 ^B,2 C4) | D8 |!mf!"^dolce" A,4!<(! A,3 (A,!<)! |!>(! B,4 A,4)!>)! | %56
 (E3 F/!<(!E/) !tenuto!D2 !tenuto!E2!<)! |!>(! (F4 D4)!>)! |!p! A,4!<(! A,3 (A,!<)! | %59
!>(! _B,4 A,4)!>)! |!f! (!>!G3 E)!>(! !tenuto!C!tenuto!A,(!tenuto!G,!tenuto!E,)!>)! | %61
!<(! (C,/E,/G,/A,/)!<)!!>(! (B,4 C2)!>)! |!p!!<(! D8- | D8!<)! |!ff! D8- |!>(! D7!>)!!p! (D | %66
!<(! !>!E4 D3) (D!<)! |!>(! !>!E2 D4) !tenuto!_B,!tenuto!G,!>)! |!pp! F,6 F,2 | %69
 (E,2 F,/E,/!<(!^D,/E,/) A,2 !tenuto!C,2!<)! |!>(! (E,4- (3:2:2E,2 D, (3C,D,E,)!>)! | %71
!p!"_dim." (D,8 | D4) (D4 |!pp! !fermata!d8) |] %74
V:2
"^dolce"!mf! (A4!<(! B4-!<)! |!>(! B2 A2) (.E2!>)! .F2) | (G3 A/G/ F2 ^E2) | F4!<(! (=E2 ^D2!<)! | %4
!>(! F2 E2)!>)!!<(! (=D2 C2!<)! |!>(! E2 D2) (B,2 G,2)!>)! |!<(! F,4!<)!!>(!{E,F,} (E,3 D,)!>)! | %7
!p! D,8 |!<(! F,4 F,4 | G,4 [G,B,]4!<)! |!mf! (A,2 ^G,2!>(! =G,4) | (G,4 F,4)!>)! | %12
!<(! (G,3 A,) B,2 A,G,!<)! | (E,4!>(! A,4) | (B,4 C4)!>)! | D6!pp! A,2 |!<(! (A,4 E,4)!<)! | %17
!>(! (F,2 ^G,2 A,4)!>)! |"_cresc." (A,2 G,2 A,4) | (B,2 C2 D2) z2 | z8 | z4 z2!<(! E2!<)! | %22
[K:treble]!f! (e3 f/e/) (d2 c2) |!>(! (e2 d2) (.c2 .B2)!>)! |!p!!<(! (A6 ^G2)!<)! | %25
!>(! (^G4 A4)!>)! |[K:tenor]!pp! E3!<(! B, C4!<)! |!>(! (C2 D6)!>)! |!pp! A,8 | (A,2 _B,2 =F,4) | %30
!<(! (=F,2 ^G,6)!<)! |!mf! =G,4!>(! ^F,2 B,2!>)! |!<(! A,4 ^G,4!<)! |!mf!!>(! (=G,8!>)! | %34
!pp! F,4)!<(! F,4 | G,4 [G,B,]4!<)! |!f! ^A,8 |!>(! =A,8!>)! |!p!!<(! !>!G,4 !>!E4!<)! | %39
!mf! (!>!E6 D2) |!>(! (!>!D6 C2)!>)! | D8- |!<(! D4 ^D4!<)! |!f!!>(! E8!>)! |[K:bass]!ppp! D,8 | %45
"_cresc." (=C,8 | ^C,2)[K:tenor] (C2 D2 E2) |!mf! D4 E4 | (D4 C4) |!>(! D6!>)!!pp! (D2 | %50
"_express." B4) (A3 B) | (A2 G4) (B,2 | F6 E2) | (D8 |!p!"^dolce" F2 E2)!<(! (.^D2 .E2)!<)! | %55
!>(! (^E4 F4)!>)! |!<(! (G4 B2 A2)!<)! |[K:treble]!>(! (A2 B2) (.c2 .d2)!>)! | %58
!pp! (f2 e2)!<(! !tenuto!^d2 !tenuto!e2!<)! |!>(! (^e4 f4)!>)! |!mf!!>(! !>!a8- | %61
 a2!>)! z2!<(! !>!A4!<)! |!p!"_cresc." !>!A4 !>!B4 | !>!B4 !>!d4 |!f! (!>!f6!>(! x2) | %65
 (!>!e4 d4)!>)! |[K:tenor]!p! ^A,8 |!>(! (B,4 _B,2)!>)! DB, |!pp! A,8 |!<(! C8!<)! |!>(! C8!>)! | %71
!pp! D8 |!p! ([DG]2!>(! D2 B,)(!tenuto!G,!tenuto!A,!>)!!tenuto!F) |!ppp! !fermata!D8 |] %74
V:3
!p! F8 | E8 | (D8 |!<(! C4) !>!=C4!<)! |!>(! !>!B,4 !>!_B,4!>)! | A,4"_dim." (D,2 E,2) | %6
!<(! [D,A,]4!<)!!>(! [G,C]4!>)! |!p! [F,D]8 |[K:bass]!pp! D,4!<(! D,4 | D,4 D,4!<)! |!mf! C,8 | %11
!>(! (^A,4 B,4)!>)! |!<(! D,8 | (C,4 D,4)!<)! |!>(! (D,4 E,4) | D,6!>)! z2 | z8 | %17
 z2!p! (E,4"_cresc." C,2) | D,8 | (D,2 E,2 D,2) A,2 |!f! A,4 A,4 |!>(! (A,2 B,A,) ^G,4!>)! | %22
!f! (A,2 E,2) [F,E]4 |!>(! [F,D]4 [E,D]4!>)! |!p!!<(! (([E,C]6 [^E,D]2))!<)! | %25
!>(! (([^E,D]4 [F,C]4))!>)! |!pp! (=G,3!<(! F,) [G,A,]4!<)! |!>(! A,8!>)! |!ppp! _E,8 | %29
 (_E,2 D,6) |!<(! (D,6 =E,=F,)!<)! |!mf! (E,4!>(! D,2) D,2!>)! |!<(! D,4 [A,,=F,]4!<)! | %33
!mf!!>(! (([A,,E,]8!>)! |!p! D,4))!<(! D,4 | D,4 E,4!<)! |!f!!>(! F,8- | F,8!>)! | %38
!p!!<(! G,4 G,4!<)! |!mf! A,8 |!>(! (!>!B,6 A,2)!>)! |!p! [F,A,]8 |!<(! G,4 F,4!<)! | %43
!f!!>(! E,8!>)! |!ppp! (=F,4 G,4) |"_cresc." G,8 | !tenuto!G,6 !tenuto!A,2 |!mf! A,4 B,4 | %48
 A,4!>(! G,4 | F,6!>)! z2 |!pp! G,4 F,4 | E,6 z2 | G,8 | F,8 |!p!!<(! G,4 G,4!<)! | %55
!>(! (^G,4 A,4)!>)! |[K:tenor]!<(! (B,4 D2 C2)!<)! |!>(! (D4 F4)!>)! |[K:treble]!<(! G4 G4!<)! | %59
!>(! (^G4 A4)!>)! |!mf!!>(! !>!c8- | c2!>)! z2!<(! !>!G4!<)! |!p! !>!F4!<(! !>!A4 | %63
 !>!G4 !>![GB]4!<)! |!>(! !>![^GA]8 | !>![FB]8!>)! |[K:bass]!p! F,8 |!>(! (G,4 E,4)!>)! |!pp! F,8 | %69
!<(! G,8!<)! |!>(! G,8!>)! |!pp! F,8 |!ppp! (B,2 G,2 A,)(!tenuto!F!tenuto!D!tenuto!A,) | %73
!ppp! !fermata!F,8 |] %74
V:4
 x8 | x8 | x8 | x8 | x8 | x8 | x8 | x8 |[K:bass] x8 | x8 | x8 | x8 | x8 | x8 | x8 | x8 | x8 | x8 | %18
 x8 | x8 | x8 | x8 | x8 | x8 | x8 | x8 | x8 | (G,2 F,6) | x8 | x8 | x8 | x8 | x8 | x8 | x8 | x8 | %36
 x8 | x8 | x8 | x8 | G,8 | x8 | x8 | x8 | x8 | x8 | x8 | x8 | x8 | x8 | x8 | x8 | x8 | x8 | x8 | %55
 x8 |[K:tenor] x8 | x8 |[K:treble] x8 | x8 | x8 | x8 | x8 | x8 | x8 | x8 |[K:bass] x8 | x8 | x8 | %69
 x8 | x8 | x8 | x8 | x8 |] %74
V:5
!p! D8 | C8 | (B,8 |!<(! ^A,4) !>!=A,4!<)! |!>(! !>!^G,4 !>!=G,4!>)! | !>!F,4"_dim." G,,4 | %6
!<(! A,,4!<)!!>(! A,,4!>)! |!p! [D,,A,,]8 |!pp! D,4!<(! B,,4 | G,,4 E,,4!<)! |!mf!!>(! A,,6 ^A,,2 | %11
 B,,8!>)! |!<(! G,,8 | (G,,4 F,,4)!<)! |!>(! (E,,4 A,,4)!>)! | [D,,A,,]6!pp! D,2 |!<(! C,8!<)! | %17
!p!!>(! B,,4 A,,4!>)! |"_cresc." (G,,6 F,,2) | (E,,2 A,,2- [D,,A,,]2) D,2 |!f! C,4 F,4 | %21
!>(! [B,,F,]4!>)! (E,2 D,2) |!f! C,4 F,,4 |!>(! B,,4 E,4!>)! |!p!!<(! A,,8!<)! |!>(! A,,8!>)! | %26
!pp!!<(! (!tenuto!A,,4 !tenuto!A,,4)!<)! |!>(! D,8!>)! |!ppp! =F,,8 | _B,,8 | %30
!<(! (=B,,4- [E,,B,,]4)!<)! |!mf!!>(! ((A,,4 B,,2) !tenuto!E,,2)!>)! |!<(! (A,,4 D,4)!<)! | %33
!mf!!>(! D,4 C,4!>)! |!pp! D,4!<(! B,,4 | G,,4 E,,4!<)! |!f! (C,,4 (=C,,2 =C,2)) |!>(! B,,8!>)! | %38
!p!!<(! !>![E,,B,,]4 !>![D,,_B,,]4!<)! |!mf! A,,8 |!>(! A,,8!>)! |!p! [D,,A,,]8 | z4!<(! B,4!<)! | %43
!f!!>(! B,8!>)! |!ppp! B,8 |"_cresc." (=C4 B,2 _B,2 | A,2) (A,,2 =B,,2 ^C,2) |!mf! D,4 G,,4 | %48
 !tenuto!A,,4 !tenuto!A,,4 |!>(! [D,,A,,]6!>)! z2 | z4!pp! B,4 | B,6 z2 | A,,8 | [D,A,]8 | %54
!p! D,,8 | D,,8 | D,,8 | D,,8 |!pp!!<(! D,,8!<)! |!>(! D,,8!>)! |!mf!!>(! !>![D,,A,,]8- | %61
 [D,,A,,]2!>)! z2[K:tenor]!<(! (A,2 E2)!<)! |!p! !>!D4!<(! !>!F4 | !>!E4 !>!E4!<)! | %64
[K:treble]!>(! !>!c8 | !>!B8!>)! |[K:bass]!p!!>(! D,8 | D,8!>)! |!pp! D,8 |!<(! A,,8!<)! | %70
!>(! [D,,A,,]8!>)! |!pp! [D,,A,,]8 | %72
[K:tenor]!ppp! (A2!>(! F2 D)[K:bass](!tenuto!A,!tenuto!F,!tenuto!D,)!>)! | %73
!pppp! !fermata![D,,A,,]8 |] %74
V:6
 x8 | x8 | x8 | x8 | x8 | x8 | x8 | x8 | x8 | x8 | x8 | x8 | x8 | x8 | x8 | x8 | x8 | x8 | x8 | %19
 x8 | x8 | x8 | x8 | x8 | x8 | x8 | x8 | x8 | x8 | x8 | x8 | x8 | x8 | x8 | x8 | x8 | x8 | x8 | %38
 x8 | (C,,6 D,,2) | x8 | x8 | x8 | x8 | x8 | x8 | x8 | x8 | x8 | x8 | x8 | x8 | x8 | x8 | x8 | x8 | %56
 x8 | x8 | x8 | x8 | x8 | x4[K:tenor] x4 | x8 | x8 |[K:treble] x8 | x8 |[K:bass] x8 | x8 | x8 | %69
 x8 | x8 | x8 |[K:tenor] x5[K:bass] x3 | x8 |] %74

